docpilot_doctor/assets/icons/prescribe.svg

<svg width="21" height="20" viewBox="0 0 21 20" fill="none" xmlns="http://www.w3.org/2000/svg">
<path d="M2.73026 20C2.43202 20 2.18219 19.8933 1.98079 19.68C1.77939 19.4667 1.67833 19.2029 1.67763 18.8889V16.1944C1.67763 15.8981 1.73026 15.6155 1.83553 15.3467C1.94079 15.0778 2.08991 14.8418 2.28289 14.6389L15.5461 0.666666C15.7566 0.444444 15.9934 0.277778 16.2566 0.166667C16.5197 0.0555556 16.7829 0 17.0461 0C17.3268 0 17.5945 0.0555556 17.8492 0.166667C18.1039 0.277778 18.3275 0.444444 18.5197 0.666666L19.9934 2.22222C20.2039 2.42592 20.3618 2.66222 20.4671 2.93111C20.5724 3.2 20.625 3.48222 20.625 3.77778C20.625 4.05555 20.5724 4.33333 20.4671 4.61111C20.3618 4.88889 20.2039 5.13889 19.9934 5.36111L6.75658 19.3611C6.5636 19.5648 6.34009 19.7222 6.08605 19.8333C5.83202 19.9444 5.5643 20 5.2829 20H2.73026ZM17.0987 5.30555L18.5197 3.80555L17.0197 2.22222L15.5987 3.72222L17.0987 5.30555ZM12.2039 20C13.5022 20 14.7039 19.6574 15.8092 18.9722C16.9145 18.287 17.4671 17.3333 17.4671 16.1111C17.4671 15.5185 17.3268 15.0044 17.0461 14.5689C16.7654 14.1333 16.3969 13.7307 15.9408 13.3611C15.6952 13.1759 15.432 13.0833 15.1513 13.0833C14.8706 13.0833 14.6338 13.1944 14.4408 13.4167C14.2478 13.6389 14.1513 13.9122 14.1513 14.2367C14.1513 14.5611 14.2741 14.8155 14.5197 15C14.7654 15.2037 14.9671 15.3889 15.125 15.5555C15.2829 15.7222 15.3618 15.9074 15.3618 16.1111C15.3618 16.537 15.0415 16.9215 14.4008 17.2644C13.7601 17.6074 13.0278 17.7785 12.2039 17.7778C11.9057 17.7778 11.6559 17.8844 11.4545 18.0978C11.2531 18.3111 11.152 18.5748 11.1513 18.8889C11.1506 19.2029 11.2517 19.467 11.4545 19.6811C11.6573 19.8952 11.9071 20.0015 12.2039 20ZM6.94079 3.33333C6.94079 3.59259 6.78746 3.82889 6.48079 4.04222C6.17412 4.25555 5.46781 4.63037 4.36184 5.16666C2.95833 5.81481 1.98465 6.40296 1.44079 6.93111C0.89693 7.45925 0.625 8.11185 0.625 8.88888C0.625 9.37036 0.730263 9.79629 0.940789 10.1667C1.15132 10.537 1.42325 10.8611 1.75658 11.1389C1.98465 11.3426 2.23904 11.4307 2.51974 11.4033C2.80044 11.3759 3.03728 11.2415 3.23026 11C3.42325 10.7585 3.51096 10.49 3.49342 10.1944C3.47588 9.89888 3.35307 9.64888 3.125 9.44444C3.00219 9.35185 2.9057 9.25925 2.83553 9.16666C2.76535 9.07407 2.73026 8.98147 2.73026 8.88888C2.73026 8.66666 2.88816 8.44444 3.20395 8.22222C3.51974 7.99999 4.1864 7.6574 5.20395 7.19444C6.74781 6.49074 7.77412 5.85185 8.28289 5.27777C8.79167 4.7037 9.04605 4.05555 9.04605 3.33333C9.04605 2.31481 8.66009 1.50481 7.88816 0.903333C7.11623 0.301852 6.09868 0.00074074 4.83553 0C4.04605 0 3.33974 0.148148 2.71658 0.444444C2.09342 0.74074 1.61553 1.10185 1.28289 1.52778C1.08991 1.76852 1.01097 2.03704 1.04605 2.33333C1.08114 2.62963 1.21272 2.87037 1.44079 3.05555C1.66886 3.25926 1.92325 3.34259 2.20395 3.30555C2.48465 3.26852 2.72149 3.14815 2.91447 2.94444C3.16009 2.68518 3.43202 2.5 3.73026 2.38889C4.02851 2.27778 4.39693 2.22222 4.83553 2.22222C5.55482 2.22222 6.0857 2.33333 6.42816 2.55555C6.77061 2.77778 6.94149 3.03703 6.94079 3.33333Z" fill="#C5C6CC"/>
</svg>

<svg xmlns="http://www.w3.org/2000/svg" width="21" height="20" fill="none" viewBox="0 0 21 20"><path fill="#c5c6cc" d="M2.73 20a1 1 0 0 1-.75-.32 1.1 1.1 0 0 1-.302-.791v-2.695q0-.444.158-.847.157-.404.447-.708L15.546.667a2.1 2.1 0 0 1 1.5-.667q.421 0 .803.167.383.165.67.5l1.474 1.555q.316.306.474.71a2.3 2.3 0 0 1 0 1.68 2.2 2.2 0 0 1-.474.75l-13.236 14a2 2 0 0 1-.67.471 2 2 0 0 1-.804.167zM17.1 5.306l1.42-1.5-1.5-1.584-1.42 1.5zM12.204 20q1.947 0 3.605-1.028 1.659-1.028 1.658-2.86 0-.89-.42-1.543a5.2 5.2 0 0 0-1.106-1.208 1.3 1.3 0 0 0-.79-.278.9.9 0 0 0-.71.334q-.29.333-.29.82t.369.763q.368.306.605.556a.8.8 0 0 1 .237.555q0 .639-.961 1.153-.96.515-2.197.514a1 1 0 0 0-.75.32 1.1 1.1 0 0 0-.303.79q0 .472.303.793.304.32.75.319M6.94 3.333q0 .39-.46.71T4.36 5.166q-2.104.972-2.92 1.764-.816.791-.816 1.958 0 .721.316 1.278.315.555.816.972a.97.97 0 0 0 .763.264q.42-.041.71-.403t.263-.806a1.06 1.06 0 0 0-.368-.75 1.5 1.5 0 0 1-.29-.277.46.46 0 0 1-.105-.278q0-.333.474-.667.474-.333 2-1.028Q7.52 6.14 8.283 5.278q.763-.86.763-1.945 0-1.527-1.158-2.43Q6.73.002 4.836 0q-1.184 0-2.12.444-.934.445-1.433 1.084-.29.36-.237.805t.395.723a.92.92 0 0 0 .763.25 1.16 1.16 0 0 0 .71-.362q.369-.388.816-.555.448-.167 1.106-.167 1.079 0 1.592.334.514.333.513.777"/></svg>
